raw/symbols/osmo.svg

<svg width="42" height="42" viewBox="0 0 42 42" fill="none" xmlns="http://www.w3.org/2000/svg">
<rect width="42" height="42" rx="21" fill="#222222"/>
<path d="M33.2856 14.8336C32.8602 15.3192 32.0638 15.5045 31.006 15.2752C29.9627 15.0489 28.7546 14.4315 27.6462 13.4603C26.5377 12.4891 25.7669 11.3726 25.4055 10.3681C25.0392 9.34965 25.1183 8.53582 25.5437 8.05025C25.9692 7.56468 26.7655 7.37931 27.8233 7.60867C28.8666 7.8349 30.0747 8.45232 31.1832 9.42351C32.2916 10.3947 33.0624 11.5112 33.4238 12.5157C33.7902 13.5342 33.7111 14.348 33.2856 14.8336Z" fill="#A892C5" stroke="#7534A4" stroke-width="0.753772"/>
<path d="M25.8813 10.6248C25.5797 10.9263 24.4993 11.5042 23.9968 11.7555L29.6501 16.655C29.7757 16.1525 30.1024 15.0721 30.4039 14.7705C30.7808 14.3937 31.5346 14.0168 31.5346 13.263C31.5346 12.5092 30.7808 11.7555 30.027 11.0017C29.2732 10.2479 28.1426 9.49414 27.3888 9.49414C26.635 9.49414 26.2581 10.2479 25.8813 10.6248Z" fill="#A892C5" stroke="#7534A4" stroke-width="0.753772"/>
<circle cx="19.4742" cy="23.4393" r="12.4372" fill="#A892C5" stroke="#7534A4" stroke-width="0.753772"/>
<path d="M30.7609 24.5727C30.1937 30.2862 25.373 34.7486 19.5102 34.7486C13.2657 34.7486 8.20359 29.6865 8.20359 23.442C8.20359 23.442 7.46396 21.9064 12.7249 22.3111C17.5879 22.6853 21.3203 21.1777 25.1256 21.1777C29.2353 21.1777 30.7609 23.0622 30.7609 23.8159V24.5727Z" fill="url(#paint0_linear_10708_242287)"/>
<path d="M30.7253 24.5701C30.158 30.2837 25.3374 34.746 19.4746 34.746C13.2301 34.746 8.16797 29.6839 8.16797 23.4395C8.16797 23.4395 10.5919 27.9621 16.8364 27.9621C20.1123 27.9621 22.1789 27.0099 25.8816 25.7008C27.3892 25.1678 30.0274 24.5701 30.7253 23.8589V24.5701Z" fill="url(#paint1_linear_10708_242287)"/>
<circle cx="23.243" cy="15.9019" r="2.26132" fill="#F3F3F3"/>
<circle cx="26.6348" cy="18.5408" r="1.13066" fill="#F3F3F3"/>
<defs>
<linearGradient id="paint0_linear_10708_242287" x1="8.40813" y1="34.6578" x2="30.6697" y2="34.6578" gradientUnits="userSpaceOnUse">
<stop stop-color="#0C0096"/>
<stop offset="1" stop-color="#B300C4"/>
</linearGradient>
<linearGradient id="paint1_linear_10708_242287" x1="8.37427" y1="34.6582" x2="30.6358" y2="34.6582" gradientUnits="userSpaceOnUse">
<stop stop-color="#1201C5"/>
<stop offset="1" stop-color="#F21CCF"/>
</linearGradient>
</defs>
</svg>

<svg xmlns="http://www.w3.org/2000/svg" width="42" height="42" fill="none"><rect width="42" height="42" fill="#222" rx="21"/><path fill="#A892C5" stroke="#7534A4" stroke-width=".754" d="M33.286 14.834c-.426.485-1.222.67-2.28.441-1.043-.226-2.251-.844-3.36-1.815-1.108-.97-1.88-2.087-2.24-3.092-.367-1.018-.288-1.832.138-2.318.425-.485 1.221-.67 2.28-.441 1.043.226 2.25.843 3.36 1.815 1.108.97 1.878 2.087 2.24 3.092.366 1.018.287 1.832-.138 2.318Z"/><path fill="#A892C5" stroke="#7534A4" stroke-width=".754" d="M25.881 10.625c-.301.301-1.382.88-1.884 1.13l5.653 4.9c.126-.503.452-1.583.754-1.885.377-.376 1.13-.753 1.13-1.507 0-.754-.753-1.508-1.507-2.261-.754-.754-1.884-1.508-2.638-1.508s-1.13.754-1.508 1.13Z"/><circle cx="19.474" cy="23.439" r="12.437" fill="#A892C5" stroke="#7534A4" stroke-width=".754"/><path fill="url(#a)" d="M30.76 24.573c-.566 5.713-5.387 10.176-11.25 10.176-6.244 0-11.306-5.063-11.306-11.307 0 0-.74-1.536 4.52-1.13 4.864.373 8.596-1.134 12.402-1.134 4.11 0 5.635 1.884 5.635 2.638v.757Z"/><path fill="url(#b)" d="M30.725 24.57c-.567 5.714-5.388 10.176-11.25 10.176-6.245 0-11.307-5.062-11.307-11.307 0 0 2.424 4.523 8.668 4.523 3.276 0 5.343-.952 9.046-2.261 1.507-.533 4.145-1.13 4.843-1.842v.711Z"/><circle cx="23.243" cy="15.902" r="2.261" fill="#F3F3F3"/><circle cx="26.635" cy="18.541" r="1.131" fill="#F3F3F3"/><defs><linearGradient id="a" x1="8.408" x2="30.67" y1="34.658" y2="34.658" gradientUnits="userSpaceOnUse"><stop stop-color="#0C0096"/><stop offset="1" stop-color="#B300C4"/></linearGradient><linearGradient id="b" x1="8.374" x2="30.636" y1="34.658" y2="34.658" gradientUnits="userSpaceOnUse"><stop stop-color="#1201C5"/><stop offset="1" stop-color="#F21CCF"/></linearGradient></defs></svg>
